symbols/web/sd/materialsymbolsoutlined/sd_wght100fill1_20px.svg

<svg xmlns="http://www.w3.org/2000/svg" height="20" width="20"><path d="M6.188 12.146h2.479q.229 0 .375-.146t.146-.375v-1.396q0-.229-.146-.375t-.375-.146H6.312V8.479h2.25v.396h.626v-.521q0-.208-.146-.354t-.375-.146H6.188q-.23 0-.365.146-.135.146-.135.354v1.417q0 .208.135.354t.365.146h2.374v1.25h-2.25v-.417h-.624v.521q0 .229.135.375t.365.146Zm4.624 0h2.292q.5 0 .854-.365.354-.364.354-.864V9.083q0-.5-.354-.864-.354-.365-.854-.365h-2.292Zm.626-.625h1.916q.125 0 .229-.104.105-.105.105-.229V8.812q0-.124-.105-.229-.104-.104-.229-.104h-1.916Zm-7.355 4.062q-.583 0-.958-.375t-.375-.958v-8.5q0-.583.375-.958t.958-.375h11.834q.583 0 .958.375t.375.958v8.5q0 .583-.375.958t-.958.375Z"/></svg>

<svg xmlns="http://www.w3.org/2000/svg" height="20" width="20"><path d="M6.188 12.146H8.667Q8.896 12.146 9.042 12Q9.188 11.854 9.188 11.625V10.229Q9.188 10 9.042 9.854Q8.896 9.708 8.667 9.708H6.312V8.479H8.562V8.875H9.188V8.354Q9.188 8.146 9.042 8Q8.896 7.854 8.667 7.854H6.188Q5.958 7.854 5.823 8Q5.688 8.146 5.688 8.354V9.771Q5.688 9.979 5.823 10.125Q5.958 10.271 6.188 10.271H8.562V11.521H6.312V11.104H5.688V11.625Q5.688 11.854 5.823 12Q5.958 12.146 6.188 12.146ZM10.812 12.146H13.104Q13.604 12.146 13.958 11.781Q14.312 11.417 14.312 10.917V9.083Q14.312 8.583 13.958 8.219Q13.604 7.854 13.104 7.854H10.812ZM11.438 11.521H13.354Q13.479 11.521 13.583 11.417Q13.688 11.312 13.688 11.188V8.812Q13.688 8.688 13.583 8.583Q13.479 8.479 13.354 8.479H11.438ZM4.083 15.583Q3.5 15.583 3.125 15.208Q2.75 14.833 2.75 14.25V5.75Q2.75 5.167 3.125 4.792Q3.5 4.417 4.083 4.417H15.917Q16.5 4.417 16.875 4.792Q17.25 5.167 17.25 5.75V14.25Q17.25 14.833 16.875 15.208Q16.5 15.583 15.917 15.583Z"/></svg>
